Origami/24x24/apps/resharper.svg

<svg width="24" height="24" version="1" xmlns="http://www.w3.org/2000/svg">
 <path d="m12 2h-9c-0.554 0-1 0.446-1 1v9h10z" style="fill:#c72566"/>
 <path d="m12 2h9c0.554 0 1 0.446 1 1v9h-10z" style="fill:#ff8c2a"/>
 <path d="m12 22h-9c-0.554 0-1-0.446-1-1v-9h10z" style="fill:#cf4f8c"/>
 <path d="m12 22h9c0.554 0 1-0.446 1-1v-9h-10z" style="fill:#c72566"/>
 <path d="m3 2c-0.554 0-1 0.446-1 1v0.5c0-0.554 0.446-1 1-1h18c0.554 0 1 0.446 1 1v-0.5c0-0.554-0.446-1-1-1z" style="fill:#ffffff;opacity:.2"/>
 <path d="m3 22.5c-0.554 0-1-0.446-1-1v-0.5c0 0.554 0.446 1 1 1h18c0.554 0 1-0.446 1-1v0.5c0 0.554-0.446 1-1 1z" style="opacity:.2"/>
 <rect x="5" y="5" width="14" height="14" style="fill:#3f3f3f"/>
 <path d="m7.5071212 15.99995h3.9999998" style="fill:none;opacity:.2;stroke-linecap:round;stroke:#000000"/>
 <path d="m7.5071212 15.5h3.9999998" style="fill:none;stroke-linecap:round;stroke:#ffffff"/>
 <path d="m9.5071232 11.999951-1.0000015-1.5m-1.0000005-0.500002s2.000002 0.232251 2.000002-0.9999985c0-1.2322505-2.000002-1.0000005-2.000002-1.0000005m4.9e-5 4.00005v-4.000001" style="fill:none;opacity:.2;stroke-linecap:round;stroke-width:.99999994;stroke:#000000"/>
 <path d="m9.5071232 11.500001-1.0000015-1.5m-1.0000005-0.500002s2.000002 0.232251 2.000002-0.9999985c0-1.2322505-2.000002-1.0000005-2.000002-1.0000005m4.9e-5 4.000049v-4" style="fill:none;stroke-linecap:round;stroke-width:.99999994;stroke:#ffffff"/>
 <path d="m11.507121 10.999904h4m-4-2.000051h4m-0.999975 3.000026v-4.000001m-2.00005 4.000001v-4.000001" style="fill:none;opacity:.2;stroke-linecap:round;stroke:#000000"/>
 <path d="m11.507121 10.500025h4m-4-2.00005h4m-0.999975 3.000025v-4m-2.00005 4v-4" style="fill:none;stroke-linecap:round;stroke:#ffffff"/>
</svg>

<svg xmlns="http://www.w3.org/2000/svg" width="24" height="24" version="1">
 <path style="fill:#c72566" d="M 12,2 H 3 C 2.446,2 2,2.446 2,3 v 9 h 10 z"/>
 <path style="fill:#ff8c2a" d="m 12,2 h 9 c 0.554,0 1,0.446 1,1 v 9 H 12 Z"/>
 <path style="fill:#cf4f8c" d="M 12,22 H 3 C 2.446,22 2,21.554 2,21 v -9 h 10 z"/>
 <path style="fill:#c72566" d="m 12,22 h 9 c 0.554,0 1,-0.446 1,-1 V 12 H 12 Z"/>
 <path style="opacity:0.2;fill:#ffffff" d="M 3,2 C 2.446,2 2,2.446 2,3 v 0.5 c 0,-0.554 0.446,-1 1,-1 h 18 c 0.554,0 1,0.446 1,1 V 3 C 22,2.446 21.554,2 21,2 Z"/>
 <path style="opacity:0.2" d="m 3,22.5 c -0.554,0 -1,-0.446 -1,-1 V 21 c 0,0.554 0.446,1 1,1 h 18 c 0.554,0 1,-0.446 1,-1 v 0.5 c 0,0.554 -0.446,1 -1,1 z"/>
 <rect style="fill:#3f3f3f" width="14" height="14" x="5" y="5"/>
 <path style="opacity:0.2;fill:none;stroke:#000000;stroke-linecap:round" d="M 7.5071212,15.99995 H 11.507121"/>
 <path style="fill:none;stroke:#ffffff;stroke-linecap:round" d="M 7.5071212,15.5 H 11.507121"/>
 <path style="opacity:0.2;fill:none;stroke:#000000;stroke-width:0.99999994;stroke-linecap:round" d="m 9.5071232,11.999951 -1.0000015,-1.5 M 7.5071212,9.999949 c 0,0 2.000002,0.232251 2.000002,-0.9999985 C 9.5071232,7.7677 7.5071212,7.99995 7.5071212,7.99995 M 7.5071702,12 V 7.999999"/>
 <path style="fill:none;stroke:#ffffff;stroke-width:0.99999994;stroke-linecap:round" d="m 9.5071232,11.500001 -1.0000015,-1.5 M 7.5071212,9.499999 c 0,0 2.000002,0.232251 2.000002,-0.9999985 C 9.5071232,7.26775 7.5071212,7.5 7.5071212,7.5 m 4.9e-5,4.000049 v -4"/>
 <path style="opacity:0.2;fill:none;stroke:#000000;stroke-linecap:round" d="m 11.507121,10.999904 h 4 v 0 0 m -4,-2.000051 h 4 v 0 0 m -0.999975,3.000026 v -4.000001 0 0 m -2.00005,4.000001 v -4.000001 0 0"/>
 <path style="fill:none;stroke:#ffffff;stroke-linecap:round" d="m 11.507121,10.500025 h 4 v 0 0 m -4,-2.00005 h 4 v 0 0 M 14.507146,11.5 v -4 0 0 m -2.00005,4 v -4 0 0"/>
</svg>
